SF_Symbols/dpad.down.filled.svg

<?xml version="1.0" encoding="UTF-8"?>
<svg xmlns="http://www.w3.org/2000/svg" xmlns:xlink="http://www.w3.org/1999/xlink" width="24" height="24" viewBox="0 0 24 24" version="1.1">
<g id="surface1">
<path style=" stroke:none;fill-rule:nonzero;fill:rgb(100%,100%,100%);fill-opacity:1;" d="M 5.417969 16.574219 C 5.792969 16.574219 6.097656 16.550781 6.332031 16.511719 C 6.578125 16.46875 6.792969 16.390625 6.980469 16.269531 C 7.171875 16.152344 7.390625 15.972656 7.636719 15.730469 L 9.65625 13.707031 C 10.015625 13.339844 10.199219 12.929688 10.199219 12.480469 C 10.199219 12.019531 10.015625 11.609375 9.65625 11.25 L 7.636719 9.230469 C 7.390625 8.984375 7.171875 8.804688 6.980469 8.6875 C 6.792969 8.5625 6.578125 8.480469 6.332031 8.4375 C 6.097656 8.394531 5.792969 8.375 5.417969 8.375 L 2.800781 8.375 C 2.136719 8.375 1.605469 8.554688 1.207031 8.917969 C 0.8125 9.269531 0.613281 9.742188 0.613281 10.332031 L 0.613281 14.625 C 0.613281 15.214844 0.8125 15.6875 1.207031 16.042969 C 1.605469 16.394531 2.136719 16.574219 2.800781 16.574219 Z M 5.417969 15.082031 L 2.84375 15.082031 C 2.609375 15.082031 2.421875 15.015625 2.292969 14.886719 C 2.160156 14.753906 2.09375 14.570312 2.09375 14.332031 L 2.09375 10.625 C 2.09375 10.382812 2.160156 10.195312 2.292969 10.0625 C 2.421875 9.929688 2.609375 9.863281 2.84375 9.863281 L 5.417969 9.863281 C 5.6875 9.863281 5.902344 9.890625 6.0625 9.949219 C 6.230469 9.996094 6.402344 10.109375 6.582031 10.292969 L 8.542969 12.238281 C 8.695312 12.398438 8.691406 12.558594 8.53125 12.71875 L 6.582031 14.667969 C 6.402344 14.847656 6.230469 14.960938 6.0625 15.011719 C 5.902344 15.058594 5.6875 15.082031 5.417969 15.082031 Z M 7.90625 5.90625 C 7.90625 6.28125 7.925781 6.585938 7.96875 6.824219 C 8.011719 7.058594 8.089844 7.273438 8.207031 7.46875 C 8.332031 7.664062 8.515625 7.878906 8.761719 8.113281 L 10.78125 10.136719 C 11.140625 10.503906 11.546875 10.6875 12 10.6875 C 12.457031 10.6875 12.871094 10.503906 13.238281 10.136719 L 15.261719 8.113281 C 15.496094 7.878906 15.671875 7.664062 15.792969 7.46875 C 15.917969 7.273438 16 7.058594 16.042969 6.824219 C 16.082031 6.585938 16.105469 6.28125 16.105469 5.90625 L 16.105469 3.28125 C 16.105469 2.613281 15.925781 2.082031 15.574219 1.6875 C 15.21875 1.292969 14.742188 1.09375 14.144531 1.09375 L 9.863281 1.09375 C 9.273438 1.09375 8.796875 1.292969 8.4375 1.6875 C 8.082031 2.082031 7.90625 2.613281 7.90625 3.28125 Z M 9.394531 5.90625 L 9.394531 3.324219 C 9.394531 3.085938 9.460938 2.902344 9.59375 2.769531 C 9.726562 2.640625 9.914062 2.574219 10.15625 2.574219 L 13.863281 2.574219 C 14.101562 2.574219 14.285156 2.640625 14.417969 2.769531 C 14.546875 2.902344 14.613281 3.085938 14.613281 3.324219 L 14.613281 5.90625 C 14.613281 6.171875 14.589844 6.386719 14.542969 6.550781 C 14.492188 6.71875 14.378906 6.890625 14.199219 7.0625 L 12.238281 9.019531 C 12.085938 9.171875 11.929688 9.171875 11.769531 9.019531 L 9.824219 7.0625 C 9.640625 6.890625 9.523438 6.71875 9.46875 6.550781 C 9.421875 6.386719 9.394531 6.171875 9.394531 5.90625 Z M 18.582031 8.386719 C 18.207031 8.386719 17.898438 8.40625 17.65625 8.449219 C 17.421875 8.488281 17.203125 8.570312 17.011719 8.6875 C 16.824219 8.804688 16.609375 8.984375 16.363281 9.230469 L 14.34375 11.25 C 13.984375 11.617188 13.800781 12.03125 13.800781 12.488281 C 13.800781 12.941406 13.984375 13.347656 14.34375 13.707031 L 16.363281 15.730469 C 16.609375 15.972656 16.824219 16.15625 17.011719 16.28125 C 17.203125 16.398438 17.421875 16.480469 17.65625 16.519531 C 17.898438 16.5625 18.207031 16.582031 18.582031 16.582031 L 21.199219 16.582031 C 21.863281 16.582031 22.394531 16.40625 22.792969 16.050781 C 23.1875 15.691406 23.386719 15.214844 23.386719 14.625 L 23.386719 10.332031 C 23.386719 9.742188 23.1875 9.269531 22.792969 8.917969 C 22.394531 8.5625 21.863281 8.386719 21.199219 8.386719 Z M 18.582031 9.875 L 21.15625 9.875 C 21.390625 9.875 21.578125 9.941406 21.707031 10.074219 C 21.839844 10.203125 21.90625 10.390625 21.90625 10.625 L 21.90625 14.332031 C 21.90625 14.578125 21.839844 14.765625 21.707031 14.894531 C 21.578125 15.027344 21.390625 15.09375 21.15625 15.09375 L 18.582031 15.09375 C 18.3125 15.09375 18.09375 15.070312 17.925781 15.019531 C 17.765625 14.964844 17.597656 14.847656 17.417969 14.667969 L 15.457031 12.71875 C 15.304688 12.558594 15.308594 12.398438 15.46875 12.238281 L 17.417969 10.292969 C 17.597656 10.109375 17.765625 9.996094 17.925781 9.949219 C 18.09375 9.898438 18.3125 9.875 18.582031 9.875 Z M 16.105469 19.050781 C 16.105469 18.675781 16.082031 18.371094 16.042969 18.136719 C 16 17.898438 15.917969 17.683594 15.792969 17.488281 C 15.671875 17.296875 15.492188 17.078125 15.25 16.84375 L 13.230469 14.8125 C 12.867188 14.453125 12.457031 14.269531 12 14.269531 C 11.546875 14.269531 11.140625 14.453125 10.769531 14.8125 L 8.75 16.84375 C 8.515625 17.078125 8.332031 17.296875 8.207031 17.488281 C 8.089844 17.683594 8.011719 17.898438 7.96875 18.136719 C 7.925781 18.371094 7.90625 18.675781 7.90625 19.050781 L 7.90625 21.675781 C 7.90625 22.34375 8.082031 22.871094 8.4375 23.261719 C 8.792969 23.65625 9.265625 23.855469 9.863281 23.855469 L 14.144531 23.855469 C 14.734375 23.855469 15.207031 23.65625 15.5625 23.261719 C 15.921875 22.871094 16.105469 22.34375 16.105469 21.675781 Z M 16.105469 19.050781 "/>
</g>
</svg>

<svg xmlns="http://www.w3.org/2000/svg" width="24" height="24"><path style="stroke:none;fill-rule:nonzero;fill:#fff;fill-opacity:1" d="M5.418 16.574c.375 0 .68-.023.914-.062.23-.035.45-.117.648-.242.192-.118.41-.297.657-.54l2.02-2.023c.359-.367.542-.777.542-1.227 0-.46-.183-.87-.543-1.23l-2.02-2.02a3.789 3.789 0 0 0-.656-.543 1.627 1.627 0 0 0-.648-.25c-.3-.046-.61-.07-.914-.062H2.801c-.664 0-1.196.18-1.594.543-.395.352-.594.824-.594 1.414v4.293c0 .59.2 1.063.594 1.418.398.352.93.531 1.594.531Zm0-1.492H2.844c-.235 0-.422-.066-.551-.195-.133-.133-.2-.317-.2-.555v-3.707c0-.242.067-.43.2-.563.129-.132.316-.199.55-.199h2.575c.27 0 .484.028.644.086.168.047.34.16.52.344l1.961 1.945c.152.16.148.32-.012.48l-1.949 1.95c-.18.18-.352.293-.52.344-.16.047-.375.07-.644.07Zm2.488-9.176c0 .375.02.68.063.918.043.235.12.45.238.645.125.195.309.41.555.644l2.02 2.024c.359.367.765.55 1.218.55.457 0 .871-.183 1.238-.55l2.024-2.024c.234-.234.41-.449.531-.644.125-.196.207-.41.25-.645.039-.238.062-.543.062-.918V3.281c0-.668-.18-1.199-.53-1.594-.356-.394-.833-.593-1.43-.593H9.863c-.59 0-1.066.199-1.425.593-.356.395-.532.926-.532 1.594Zm1.489 0V3.324c0-.238.066-.422.199-.554.133-.13.32-.196.562-.196h3.707c.239 0 .422.067.555.196.129.132.195.316.195.554v2.582c0 .266-.023.48-.07.645-.05.168-.164.34-.344.511L12.24 9.02c-.153.152-.31.152-.47 0L9.825 7.063c-.183-.172-.3-.344-.355-.512a2.551 2.551 0 0 1-.074-.645Zm9.187 2.48c-.375 0-.684.02-.926.063-.234.04-.453.121-.644.239-.235.156-.453.34-.649.542l-2.02 2.02c-.359.367-.542.781-.542 1.238 0 .453.183.86.543 1.219l2.02 2.023c.245.243.46.426.648.551.191.117.41.2.644.239.242.043.551.062.926.062h2.617c.664 0 1.196-.176 1.594-.531.395-.36.594-.836.594-1.426v-4.293c0-.59-.2-1.062-.594-1.414-.398-.355-.93-.531-1.594-.531Zm0 1.489h2.574c.235 0 .422.066.551.2.133.128.2.316.2.55v3.707c0 .246-.067.434-.2.563-.129.132-.316.199-.55.199h-2.575c-.27 0-.488-.024-.656-.074-.16-.055-.328-.172-.508-.352l-1.961-1.95c-.152-.16-.148-.32.012-.48l1.949-1.945c.18-.184.348-.297.508-.344.168-.05.387-.074.656-.074Zm-2.477 9.176c0-.375-.023-.68-.062-.914-.04-.23-.125-.45-.25-.649-.121-.191-.3-.41-.543-.644l-2.02-2.032c-.363-.359-.773-.542-1.23-.542-.453 0-.86.183-1.23.543l-2.02 2.03a4.09 4.09 0 0 0-.543.645c-.117.196-.195.41-.238.649-.043.234-.063.539-.063.914v2.625c0 .668.176 1.195.532 1.586.355.394.828.593 1.425.593h4.282c.59 0 1.062-.199 1.418-.593.359-.39.542-.918.542-1.586Zm0 0"/></svg>
